fuse-alert.svg

<svg fill="currentColor" viewBox="0 0 24 24"><path d="M6 7v10h7V7zm3.16 9v-3.13H7.41L9.91 8v3.14h1.68zM14 2v4H5V2c0-.55.45-1 1-1h7c.55 0 1 .45 1 1m0 16v4c0 .55-.45 1-1 1H6c-.55 0-1-.45-1-1v-4zm5-5h-2V7h2zm0 4h-2v-2h2z"/></svg>

<svg  viewBox="0 0 24 24" fill="currentColor"><path  d="M6 7V17H13V7H6M9.16 16V12.87H7.41L9.91 8V11.14H11.59L9.16 16M14 2V6H5V2C5 1.45 5.45 1 6 1H13C13.55 1 14 1.45 14 2M14 18V22C14 22.55 13.55 23 13 23H6C5.45 23 5 22.55 5 22V18H14M19 13H17V7H19V13M19 17H17V15H19V17Z"/></svg>
